outputs/icons/file/ppt_attach_round.svg

<svg xmlns="http://www.w3.org/2000/svg" width="1200" height="1200" fill="none"><g fill="#000" clip-path="url(#a)"><path d="M828.76 50H157.079C98.186 50 50 99.5 50 160v880c0 60.5 47.65 110 106.544 110h886.376c58.895 0 107.08-49.5 107.08-110V380zm214.16 990H157.079V160H775.22v275h267.7z"/><path d="M198.291 950V601h135c17 0 32.166 2.67 45.5 8q20 7.501 33.5 22 14 14.504 21 35c4.666 13.67 7 29 7 46q0 25.501-7 46-7 20.504-21 35-13.5 14.505-33.5 22.5-20 7.5-45.5 7.5h-59.5v127zm75.5-187.5h40.5c17.666 0 29.834-3.33 36.5-10q10.5-9.997 10.5-33v-15q0-22.995-10.5-33-10-9.999-36.5-10h-40.5zM488.096 950V601h134.999c17 0 32.165 2.67 45.5 8q20.001 7.501 33.5 22 14.002 14.504 21 35c4.665 13.67 7 29 7 46q-.001 25.501-7 46-6.998 20.504-21 35-13.499 14.505-33.5 22.5-20.001 7.5-45.5 7.5h-59.5v127zm75.499-187.5h40.5c17.665 0 29.835-3.33 36.5-10q10.5-9.997 10.5-33v-15q0-22.995-10.5-33c-6.665-6.665-18.835-10-36.5-10h-40.5zM927.4 662.5V950h-75V662.5H751.9V601h276v61.5z"/></g><defs><clipPath id="a"><path fill="#fff" d="M0 0h1200v1200H0z"/></clipPath></defs></svg>

<svg width="1200" height="1200" viewBox="0 0 1200 1200" fill="none" xmlns="http://www.w3.org/2000/svg"><g clip-path="url(#clip0_238_2701)"><path d="M828.76 50H157.079C98.186 50 50 99.5 50 160V1040C50 1100.5 97.65 1150 156.544 1150H1042.92C1101.815 1150 1150 1100.5 1150 1040V380L828.76 50ZM1042.92 1040H157.079V160H775.22V435H1042.92V1040Z" fill="black"/><path d="M198.291 950V601H333.291C350.291 601 365.457 603.67 378.791 609C392.125 614 403.291 621.335 412.291 631C421.624 640.67 428.625 652.335 433.291 666C437.957 679.67 440.291 695 440.291 712C440.291 729 437.957 744.335 433.291 758C428.625 771.67 421.624 783.335 412.291 793C403.291 802.67 392.125 810.17 378.791 815.5C365.457 820.5 350.291 823 333.291 823H273.791V950H198.291ZM273.791 762.5H314.291C331.957 762.5 344.125 759.17 350.791 752.5C357.791 745.835 361.291 734.835 361.291 719.5V704.5C361.291 689.17 357.791 678.17 350.791 671.5C344.125 664.835 331.957 661.5 314.291 661.5H273.791V762.5Z" fill="black"/><path d="M488.096 950V601H623.095C640.095 601 655.26 603.67 668.595 609C681.93 614 693.095 621.335 702.095 631C711.43 640.67 718.43 652.335 723.095 666C727.76 679.67 730.095 695 730.095 712C730.095 729 727.76 744.335 723.095 758C718.43 771.67 711.43 783.335 702.095 793C693.095 802.67 681.93 810.17 668.595 815.5C655.26 820.5 640.095 823 623.095 823H563.595V950H488.096ZM563.595 762.5H604.095C621.76 762.5 633.93 759.17 640.595 752.5C647.595 745.835 651.095 734.835 651.095 719.5V704.5C651.095 689.17 647.595 678.17 640.595 671.5C633.93 664.835 621.76 661.5 604.095 661.5H563.595V762.5Z" fill="black"/><path d="M927.4 662.5V950H852.4V662.5H751.9V601H1027.9V662.5H927.4Z" fill="black"/></g><defs><clipPath id="clip0_238_2701"><path width="24" fill="white" d="M0 0H1200V1200H0V0z"/></clipPath></defs></svg>
